X:1
T:Trip to the Lakes
M:6/8
L:1/8
R:Jig
B:Elias Howe – Musician’s Omnibus Nos. 6 & 7 (Boston, 1880-1882, p. 647)
B:  http://ks4.imslp.net/files/imglnks/usimg/c/c7/IMSLP601433-PMLP562790-ONeill_Rare_Medium_M40_M8_v6.7_text.pdf
Z:AK/Fiddler’s Companion
K:D
c'bc' afd|efg fed|c'bc' efg|fdd d2z:|
|:d'c'd' afa|bab geg|d'c'd' afd|efg fed|
d'c'd' afa|d'c'd' bgb|d'c'd' efg|fdd d2z:|
Fdd Gdd|Bdd Add|dba gfe|fag fed|
Fdd Gdd|Bdd Add|dbg fge|fdd d2z:|]

